azad_website/azad/static/assets/images/brands/ayroui.svg

<svg width="200" height="52" viewBox="0 0 200 52" fill="none" xmlns="http://www.w3.org/2000/svg">
<path opacity="0.56" d="M19.3545 4.27083C19.3545 1.9112 21.2792 0 23.6556 0H25.8061C40.0588 0 51.6126 11.4725 51.6126 25.625V46.9792C51.6126 49.3388 49.6879 51.25 47.3115 51.25H45.161C30.9083 51.25 19.3545 39.7775 19.3545 25.625V4.27083Z" fill="#4A6CF7"/>
<path opacity="0.88" d="M21.5054 51.25C33.3825 51.25 43.0108 41.6894 43.0108 29.8958C43.0108 18.1022 33.3825 8.54163 21.5054 8.54163C9.62829 8.54163 0 18.1022 0 29.8958C0 41.6894 9.62829 51.25 21.5054 51.25Z" fill="#4A6CF7"/>
<path d="M81.0229 40.7165H88.1982L78.1245 12.8125H70.2804L60.2148 40.7165H67.3079L68.9756 35.7876H79.3546L81.0229 40.7165ZM77.6127 30.5407H70.7595L74.1611 20.3251L77.6127 30.5407ZM101.443 32.4088L96.3315 18.5364H88.76L97.76 39.9612L92.6821 51.25H99.981L113.853 18.5364H106.521L101.443 32.4088ZM123.076 30.4214C123.076 26.6055 124.942 25.4925 128.155 25.4925H130.012V18.2979C127.04 18.2979 124.62 19.8879 123.076 22.2331V18.5364H116.297V40.7165H123.076V30.4214ZM154.891 29.6264C154.891 22.5908 149.904 18.2184 143.397 18.2184C136.94 18.2184 131.903 22.5908 131.903 29.6264C131.903 36.6621 136.825 41.0344 143.323 41.0344C149.821 41.0344 154.891 36.6621 154.891 29.6264ZM138.806 29.6264C138.806 25.8502 140.945 24.1013 143.397 24.1013C145.775 24.1013 147.997 25.8502 147.997 29.6264C147.997 33.3628 145.742 35.1516 143.323 35.1516C140.862 35.1516 138.806 33.3628 138.806 29.6264ZM169.572 30.5009C169.572 37.6955 174.246 40.9947 179.96 40.9947C185.665 40.9947 190.381 37.6955 190.381 30.5009V13.0113H186.772V30.5407C186.772 35.6286 184.08 37.8148 179.993 37.8148C175.914 37.8148 173.181 35.6286 173.181 30.5407V13.0113H169.572V30.5009ZM196.4 40.7165H200V13.0113H196.4V40.7165Z" fill="#2D2D2D"/>
</svg>

<svg width="200" height="52" fill="none" xmlns="http://www.w3.org/2000/svg"><path opacity=".56" d="M19.355 4.27c0-2.359 1.924-4.27 4.3-4.27h2.151C40.06 0 51.613 11.473 51.613 25.625v21.354c0 2.36-1.925 4.271-4.301 4.271H45.16c-14.253 0-25.806-11.472-25.806-25.625V4.271z" fill="#4A6CF7"/><path opacity=".88" d="M21.505 51.25c11.878 0 21.506-9.56 21.506-21.354 0-11.794-9.629-21.354-21.506-21.354S0 18.102 0 29.896C0 41.689 9.628 51.25 21.505 51.25z" fill="#4A6CF7"/><path d="M81.023 40.717h7.175L78.125 12.813H70.28L60.215 40.716h7.093l1.668-4.93h10.379l1.668 4.93zm-3.41-10.176H70.76l3.401-10.216 3.452 10.216zm23.83 1.868l-5.111-13.873H88.76l9 21.425-5.078 11.289h7.299l13.872-32.714h-7.332l-5.078 13.873zm21.633-1.988c0-3.816 1.866-4.928 5.079-4.928h1.857v-7.195c-2.972 0-5.392 1.59-6.936 3.935v-3.697h-6.779v22.18h6.779V30.422zm31.815-.795c0-7.035-4.987-11.408-11.494-11.408-6.457 0-11.494 4.373-11.494 11.408 0 7.036 4.922 11.408 11.42 11.408s11.568-4.372 11.568-11.408zm-16.085 0c0-3.776 2.139-5.525 4.591-5.525 2.378 0 4.6 1.75 4.6 5.525 0 3.737-2.255 5.526-4.674 5.526-2.461 0-4.517-1.79-4.517-5.526zm30.766.875c0 7.195 4.674 10.494 10.388 10.494 5.705 0 10.421-3.3 10.421-10.494V13.01h-3.609v17.53c0 5.088-2.692 7.274-6.779 7.274-4.079 0-6.812-2.186-6.812-7.274V13.01h-3.609V30.5zM196.4 40.717h3.6V13.01h-3.6v27.706z" fill="#2D2D2D"/></svg>
